X: 95
T:Mursen yn ei Menig
T:The Coy Dame in Gloves
M:6/8
L:1/8
Q:130
S:Cadw Twmpath Collection
R:Jig
A:Wales
N:'Mursen' translates as either 'coquette' or 'prude'.
N:.
Z:brian_martin12345@yahoo.com
K:D
dfd cBA|BdB AGF|GBG FAF|Fdc"Fine"d3:||!
dfa gfe|dfd ecA|Bdf edc|dcBA2"    D.C."B/c/||

